svg/shield-time.svg

<?xml version="1.0" encoding="UTF-8"?>
<svg xmlns="http://www.w3.org/2000/svg" xmlns:xlink="http://www.w3.org/1999/xlink" width="32" height="32" viewBox="0 0 32 32">
<path fill-rule="nonzero" fill="rgb(0%, 0%, 0%)" fill-opacity="1" d="M 16 0.0625 C 14.730469 0.0625 13.585938 0.664062 12 1.5 C 9.960938 2.574219 7.160156 4.042969 2.421875 5.082031 L 1.921875 5.195312 L 1.921875 5.707031 C 1.921875 25.207031 15.59375 31.742188 15.730469 31.808594 L 16.015625 31.9375 L 16.289062 31.796875 C 16.425781 31.726562 30.078125 24.558594 30.078125 5.707031 L 30.078125 5.195312 L 29.578125 5.082031 C 24.839844 4.042969 22.039062 2.574219 20 1.5 C 18.414062 0.664062 17.269531 0.0625 16 0.0625 M 16 8.960938 C 19.167969 8.960938 21.761719 11.550781 21.761719 14.71875 C 21.761719 17.886719 19.167969 20.480469 16 20.480469 C 12.832031 20.480469 10.238281 17.886719 10.238281 14.71875 C 10.238281 11.550781 12.832031 8.960938 16 8.960938 M 15.359375 10.878906 L 15.359375 14.398438 L 13.054688 16.128906 L 13.824219 17.152344 L 16.640625 15.039062 L 16.640625 10.878906 Z M 15.359375 10.878906 "/>
</svg>

<svg role="img" viewBox="0 0 32 32" height="32" width="32" xmlns="http://www.w3.org/2000/svg"><path d="M16 .063c-1.27 0-2.414.601-4 1.437-2.04 1.074-4.84 2.543-9.578 3.582l-.5.113v.512c0 19.5 13.672 26.035 13.808 26.102l.286.128.273-.14c.137-.07 13.79-7.238 13.79-26.09v-.512l-.5-.113C24.838 4.043 22.038 2.574 20 1.5 18.414.664 17.27.063 16 .063m0 8.898c3.168 0 5.762 2.59 5.762 5.758S19.168 20.48 16 20.48c-3.168 0-5.762-2.593-5.762-5.761S12.832 8.96 16 8.96m-.64 1.918v3.52l-2.305 1.73.77 1.023 2.816-2.113v-4.16Zm0 0"/></svg>
